src/assets/icons/flexibility.svg

<svg width="44" height="45" viewBox="0 0 44 45" fill="none" xmlns="http://www.w3.org/2000/svg">
<path d="M2.6095 32.1347V40.2555H13.9698V32.1347L8.28966 29.02L2.6095 32.1347Z" stroke="#1A2578" stroke-width="1.5" stroke-linecap="round" stroke-linejoin="round"/>
<path d="M10.381 33.9268H6.42078V40.2539H10.381V33.9268Z" stroke="#1A2578" stroke-width="1.5" stroke-linecap="round" stroke-linejoin="round"/>
<path d="M21.4868 32.3749C26.7818 32.3749 31.0743 28.0824 31.0743 22.7873C31.0743 17.4922 26.7818 13.1997 21.4868 13.1997C16.1917 13.1997 11.8992 17.4922 11.8992 22.7873C11.8992 28.0824 16.1917 32.3749 21.4868 32.3749Z" stroke="#BF0830" stroke-width="1.5" stroke-linecap="round" stroke-linejoin="round"/>
<path d="M15.3165 24.6628L19.0926 28.4373L27.8475 19.6825L25.8794 17.7144L19.0478 24.5443L17.2558 22.7524L15.3165 24.6628Z" stroke="#BF0830" stroke-width="1.5" stroke-linecap="round" stroke-linejoin="round"/>
<path d="M40.4203 3.98682H29.2201V14.966H40.4203V3.98682Z" stroke="#1A2578" stroke-width="1.5" stroke-linecap="round" stroke-linejoin="round"/>
<path d="M36.9132 10.3125H32.7272V14.9662H36.9132V10.3125Z" stroke="#1A2578" stroke-width="1.5" stroke-linecap="round" stroke-linejoin="round"/>
<path d="M4.7478 22.4991C4.7477 18.2904 6.33302 14.2361 9.18796 11.1437C12.0429 8.05135 15.958 6.14789 20.1533 5.8125" stroke="#1A2578" stroke-width="1.5" stroke-linecap="round" stroke-linejoin="round"/>
<path d="M16.8 11.4751L15.8472 10.6936L19.697 6.00314L14.7374 2.50567L15.4485 1.5L21.4889 5.76133L16.8 11.4751Z" fill="#1A2578"/>
<path d="M38.228 22.4995C38.2281 26.7084 36.6429 30.7629 33.788 33.8555C30.9331 36.9481 27.018 38.8519 22.8225 39.1877" stroke="#1A2578" stroke-width="1.5" stroke-linecap="round" stroke-linejoin="round"/>
<path d="M26.1758 33.5254L27.1287 34.3053L23.2789 38.9974L28.2385 42.4948L27.5274 43.5005L21.4869 39.2392L26.1758 33.5254Z" fill="#1A2578"/>
</svg>

<svg width="44" height="45" fill="none" xmlns="http://www.w3.org/2000/svg"><path d="M2.61 32.135v8.12h11.36v-8.12L8.29 29.02l-5.68 3.115Z" stroke="#1A2578" stroke-width="1.5" stroke-linecap="round" stroke-linejoin="round"/><path d="M10.381 33.927h-3.96v6.327h3.96v-6.327Z" stroke="#1A2578" stroke-width="1.5" stroke-linecap="round" stroke-linejoin="round"/><path d="M21.487 32.375a9.588 9.588 0 0 0 9.587-9.588 9.588 9.588 0 1 0-19.175 0 9.588 9.588 0 0 0 9.588 9.588Z" stroke="#BF0830" stroke-width="1.5" stroke-linecap="round" stroke-linejoin="round"/><path d="m15.316 24.663 3.777 3.774 8.755-8.755-1.969-1.968-6.831 6.83-1.792-1.792-1.94 1.91Z" stroke="#BF0830" stroke-width="1.5" stroke-linecap="round" stroke-linejoin="round"/><path d="M40.42 3.987h-11.2v10.979h11.2V3.986Z" stroke="#1A2578" stroke-width="1.5" stroke-linecap="round" stroke-linejoin="round"/><path d="M36.913 10.313h-4.186v4.653h4.186v-4.653ZM4.748 22.5A16.74 16.74 0 0 1 20.153 5.811" stroke="#1A2578" stroke-width="1.5" stroke-linecap="round" stroke-linejoin="round"/><path d="m16.8 11.475-.953-.781 3.85-4.69-4.96-3.498.711-1.006 6.04 4.261-4.688 5.714Z" fill="#1A2578"/><path d="M38.228 22.5a16.741 16.741 0 0 1-15.405 16.688" stroke="#1A2578" stroke-width="1.5" stroke-linecap="round" stroke-linejoin="round"/><path d="m26.176 33.525.953.78-3.85 4.692 4.96 3.498-.712 1.006-6.04-4.262 4.689-5.714Z" fill="#1A2578"/></svg>
